X:13335
T:Polka pique
A:Centre
O:France
M:2/4
L:1/8
K:C
e2e2|d/2e/2f/2d/2 ec|g2g2|a/2g/2f/2e/2 d2:|
|:de/2f/2 gf|ed c2|cB/2c/2 df|1ec d2:|2ed c2||
